X: 28831
T: My Sunny Valentine
R: reel
M: 4/4
K: Eminor
B2Ac BAGF|EG~G2 FEDC|B,EED EFGA|BAcA BAGA|
B2Ac BAGF|EG~G2 FEDC|B,EED EFGA|BAGF E2GA:|
|:Be~e3 Begf|eB~B2 cBAc|BEED EFGA|BAcA BAGA|
Be~e3 gfed|eB~B2 cBAc|BEED EFGA|BAGF E2GA:|

